X: 3666
T: Billy Borndrunk's
R: jig
M: 6/8
K: Dmajor
|dcd ede|fef gfg|~a3 ged|cde ABc|
~d3 ede|~f3 gfg|afa gec|edc ~d3:|
efe ecA|ecA efg|aba gag|fed ~e3|
efe ecA|ecA efg|~a3 gec|edc ~d3:|

